X:19
T:Stur the Guile(?). JBi.19
M:C
L:1/8
Q:1/4=120
S:James Biggins MS, Leeds, 1779.
R:.Reel
O:England
A:Yorkshire
Z:vmp.Nick Barber & Chris Partington
K:D
A|d2de (d/c/B/A/) (G/F/E/D/)|d2df eg f/g/a|\
d2de (d/c/B/A/) (G/F/E/D/)|E=CCEA2A||!
e|dDDB AFED|dDDf eg f/g/a|dDDB AFED|E=CCE ^c2â€³^crâ€c|]

